X: 214
T:Yanick's
M:6/8
L:1/8
C:John Whelan
R:jig
D:Sona: Launching the Boat
Z:Devin McCabe
K:C
GCC EDC|EFG GEG|ADd B2g|efd e2d|
!cCC EDC|EFG GEG|Adc ~B3|1ced c2A:|2ced c2g|
!:~e3 cG,C|EGc ege|~f3 dec|BdA G2g|
!~e3 cG,C|EGc ege|~f3 dcB|1GdB c2g:|2GdB c2A|
